X:1620
T:Geminisani's Minuet
A:Wyresdale, Lancashire
B:E and J Winder, 1835-41
L:1/8
M:3/8
O:England
Z:Richard Robinson 
%%RRN:Geminiani 
%%RRN:Time actually given as 6/8, but barlines lengths as here
%%TUNEURL: http://www.leeds.ac.uk/music/Info/RRTuneBk/gettune/00001260.html
%%ID:00001260
K:D
d2c | d2c | d2e | f2e | g2f | e2d | c2d | e3 ::
ecA | fdB | gec | a3 | bge | cde | f2e | d3 :|
%%newpage
%page 129
